Shadows Icons Themes/Shadows-Dark-Icons/devices/symbolic/drive-harddisk-symbolic.svg

<svg xmlns="http://www.w3.org/2000/svg" viewBox="0 0 16 16">
    <defs id="defs1">
        <style type="text/css" id="current-color-scheme">
            .ColorScheme-Text {
                color:#eff0f1;
            }
        </style>
    </defs>
    <path style="fill:currentColor;fill-opacity:1;stroke:none"
        d="M3 2v12h10V2zm3 1h4a2 2 0 0 1 2 2v1a1 1 0 1 0 0 2v2l-1 1H5l-1-1V8a1 1 0 1 0 0-2V5a2 2 0 0 1 2-2zm-2 9h4v1H4zm6 0h2v1h-2z"
        class="ColorScheme-Text"/>
</svg>

<svg xmlns="http://www.w3.org/2000/svg" viewBox="0 0 16 16">
  <style
     type="text/css"
     id="current-color-scheme">
        .ColorScheme-Text {
            color:#eff0f1;
        }
    </style>
  <path
     style="fill:currentColor;fill-opacity:1"
     d="M 6 2 C 4.338 2 3 3.338 3 5 L 3 8 L 3 11 L 3 14 L 6 14 L 10 14 L 13 14 L 13 11 L 13 8 L 13 5 C 13 3.338 11.662 2 10 2 L 6 2 z M 6 3 L 10 3 A 2 2 0 0 1 12 5 L 12 6 A 1 1 0 0 0 12 8 L 12 10 L 11 11 L 5 11 L 4 10 L 4 8 A 1 1 0 0 0 4 6 L 4 5 A 2 2 0 0 1 6 3 z M 4 12 L 8 12 L 8 13 L 4 13 L 4 12 z M 10 12 L 12 12 L 12 13 L 10 13 L 10 12 z "
     class="ColorScheme-Text"/>
</svg>
